!!!!SEGMENT: pl-wn--mus-iii-72-689-cim_katski-apolinary--mazur-sielankowy-op-4.krn
!!!cenid: 18xx:3625
!!!COM: Kątski, Apolinary
!!!COM-rismID: pe30020040
!!!CDT: 1825-1879
!!!CNT: Polish
!!!OTL: Mazur sielankowy op. 4
!!!PDT:
!!!AGN:
!!!SMS-siglum: PL-Wn
!!!SMS-shelfmark: Mus.III.72.689 Cim
!!!SMS-shelfwork: W
!!!SMS-variant:
!!!SMS-altvar:
!!!NIFC-rismSourceID:
!!!NIFC-islandoraID:
!!!URL-pdf-islandora:
!!!URL-scan: https://polona.pl/item/mazur-sielankowy-dzielo-4,MTA1NjU0MQ/13 @EN{Scan on Polona} @PL{Skany w portalu Polona}
!!!ONB-nifc:
!!!AIN: 2 piano
!!!key: D
**kern	**dynam	**kern	**dynam
*part2	*part2	*part1	*part1
*staff2	*	*staff1	*
*I"Piano	*	*I"Piano	*
*I'pf	*	*I'pf	*
*ICklav	*	*ICklav	*
*Ipiano	*	*Ipiano	*
*clefF4	*	*clefG2	*
*k[f#c#]	*	*k[f#c#]	*
*D:	*	*D:	*
*M3/4	*	*M3/4	*
=1	=1	=1	=1
4DD/ 4D	.	8.a^^\L 8.dd 8.ff# 8.aa	ff
.	.	16a\K 16aa	.
4F#\ 4A 4d	.	8.g#X\ 8.gg#X	.
.	.	16a\K 16aa	.
4F#\ 4A 4d	.	8.b\ 8.bb	.
.	.	16a\Jk 16aa	.
=2	=2	=2	=2
4CC#/ 4C#	.	4cc#\ 4ee 4aa 4ccc#	.
4E\ 4A 4c#	.	2ee\ 2eee	sf
4E\ 4A 4c#	.	.	.
=3	=3	=3	=3
4BBB/ 4BB	.	8.e^^\L 8.g#X 8.dd 8.ee	.
.	.	16e\K 16ee	.
4E\ 4G#X 4d	.	8.d#X\ 8.dd#X	.
.	.	16e\K 16ee	.
4E\ 4G# 4d	.	8.f#\ 8.ff#	.
.	.	16g#\Jk 16gg#X	.
=4	=4	=4	=4
4AAA/ 4AA	.	4a\ 4aa	.
4C#\ 4E 4A	.	2c#/ 2e 2a	sf
4AA/	.	.	.
!!LO:LB:g=original	!	!	!
=5	=5	=5	=5
4D\	.	8.f#'/L 8.a	p
.	.	16f#'/K 16a	.
4A\ 4d	.	8.f#'/ 8.g#X	.
.	.	16f#'/K 16a	.
4A\ 4d	.	8.f#'/ 8.b	.
.	.	16f#'/Jk 16a	.
=6	=6	=6	=6
4C#/	.	4e/ 4a 4cc#	.
4A\ 4c#	.	2e^>/ 2a 2ee	.
4A\ 4c#	.	.	.
=7	=7	=7	=7
!	!	!	!LO:HP:a
4BB/	.	8.G#X'/L 8.d 8.e	<
.	.	16e'/K	.
4G#X\ 4B	.	8.d'/ 8.fn	.
.	.	16f#X'/K	.
4E\ 4B	.	8.d'/ 8.g	.
.	.	16g#X'/Jk	[[
=8	=8	=8	=8
4AAA/ 4AA	.	4c#/ 4a	.
4E\ 4A 4c#	.	8.r	.
.	.	16g#X\ 16gg#X	ff
4F#\ 4A 4d	.	8.a^^\L 8.dd 8.ff# 8.aa	.
.	.	16g#\Jk 16gg#	.
=9	=9	=9	=9
4AAA/ 4AA	.	8.a^^\L 8.cc# 8.ee 8.aa	.
.	.	16g#X\Jk 16gg#X	.
4E\ 4A 4c#	.	8.a\L 8.aa	.
.	.	16g#\Jk 16gg#	.
4F#\ 4A 4d	.	8.a^^\L 8.dd 8.ff# 8.aa	.
.	.	16g#\Jk 16gg#	.
!!LO:LB:g=original	!	!	!
=10	=10	=10	=10
4AAA/ 4AA	.	8.a^^\L 8.cc# 8.ee 8.aa	.
.	.	16g#X\Jk 16gg#X	.
4E\ 4A 4c#	.	8.a\L 8.aa	.
.	.	16g#\Jk 16gg#	.
4F#\ 4A 4d	.	8.a^^\L 8.dd 8.ff# 8.aa	.
.	.	16g#\Jk 16gg#	.
=11	=11	=11	=11
4AAA/ 4AA	.	8.a^^\L 8.cc# 8.ee 8.aa	.
.	.	16g#X\Jk 16gg#X	.
4E\ 4A 4c#	.	8.a\L 8.aa	.
.	.	16g#\Jk 16gg#	.
4F#\ 4A 4d	.	8.a^^\L 8.dd 8.ff# 8.aa	.
.	.	16g#\Jk 16gg#	.
=12	=12	=12	=12
4AAA/ 4AA	.	8.a^^\ 8.cc# 8.ee 8.aa	.
.	.	16g#X'/	p
!	!	!	!LO:HP:t=dim.
4r	.	8.a'/L	>
.	.	16g#'/Jk	.
4r	.	8.a'/L	.
.	.	16g#'/Jk	.
=13	=13	=13	=13
2.r	.	8.a'/L	.
.	.	16g#X'/Jk	.
!	!	!LO:TX:b:i:t=rall.	!
.	.	8.a'/L	.
.	.	16g#'/Jk	.
.	.	8.a'/L	.
.	.	16g#'/Jk	.
!!LO:LB:g=original	!	!	!
=14||	=14||	=14||	=14||
*	*	*^	*
!LO:TX:a:t=[segno]	!	!LO:TX:a:t=[segno]	!	!
4CC#'/ 4C#	.	8.a'/L	4e\ 4g	p
.	.	16b'/Jk	.	.
4AAA'/ 4AA	.	8.cc#'/L	4e\ 4g	.
.	.	16dd'/Jk	.	.
4CC#'/ 4C#	.	8.ee'/L	4g\ 4a	.
.	.	16ffn'/Jk	.	.
=15	=15	=15	=15	=15
4DD/ 4D	.	(8ff#/L	4a\ 4dd	<
.	.	16aa'/Jk)	.	.
.	.	16r	.	.
4A\ 4d 4f#	.	2a^\ 2aa	2ryy	.
4A\ 4d 4f#	.	.	.	.
=16	=16	=16	=16	=16
4GG/	.	(8bb/L	4dd\ 4gg	.
.	.	16ddd'/Jk)	.	.
.	.	16r	.	.
4B\ 4d 4g	.	2dd^\ 2ddd	2ryy	.
4BB/	.	.	.	.
=17	=17	=17	=17	=17
4D\	.	(8ddd/L	4ff#\ 4aa	.
.	.	16fff#'/Jk)	.	.
.	.	16r	.	.
4A\ 4d 4f# 4a	.	2ff#^\ 2fff#	2ryy	[
4A\ 4d 4f# 4a	.	.	.	.
*	*	*v	*v	*
!!LO:LB:g=original	!	!	!
=18	=18	=18	=18
4FF#/	.	[4ff#\ [4fff#	.
*clefG2	*	*	*
4c#/ 4e 4a#X	.	8.ff#\L] 8.fff#]	.
.	.	16gg'\Jk 16ggg	.
4c#/ 4e 4a#	.	8.ff#'\L 8.fff#	.
.	.	16ee'\Jk 16eee	.
*clefF4	*	*	*
=19	=19	=19	=19
4BBB/ 4BB	.	4ee\ 4eee	f
4B\ 4d 4f#	.	8dd\L 8ddd	.
.	.	8cc#\ 8ccc#	.
4B\ 4d 4f#	.	8b\ 8bb	.
.	.	8a\J 8aa	.
=20	=20	=20	=20
4EE/ 4E	.	8.g#X\L 8.gg#X	.
.	.	(16gg#\Jk	p
4d\ 4e 4g#X	.	4.cc#\) 4.ccc#	.
4d\ 4e 4g#	.	.	.
.	.	8b\ 8bb	.
=21	=21	=21	=21
8AAA/ 8AA	.	12a'\ 12cc# 12ee 12aa	sf
.	.	12ggn'\L	.
8r	.	.	.
.	.	12ff#'\J	.
4r	.	12ee'\L	.
.	.	12dd'\	.
.	.	12cc#X'\J	.
4r	.	12ccn'\L	.
.	.	12b'\	.
.	.	12b-X'\J	.
!!LO:LB:g=original	!	!	!
=22	=22	=22	=22
*	*	*^	*
4CC#'/ 4C#	.	8.a'/L	4e\ 4g	p
.	.	16b'/Jk	.	.
4AAA'/ 4AA	.	8.cc#'/L	4e\ 4g	.
.	.	16dd'/Jk	.	.
4CC#'/ 4C#	.	8.ee'/L	4g\ 4a	.
.	.	16ffn'/Jk	.	.
=23	=23	=23	=23	=23
4DD/ 4D	.	(8ff#/L	4a\ 4dd	<
.	.	16aa'/Jk)	.	.
.	.	16r	.	.
4A\ 4d 4f#	.	2a^\ 2aa	2ryy	.
4A\ 4d 4f#	.	.	.	.
=24	=24	=24	=24	=24
4BBB/ 4BB	.	(8bb/L	4dd\ 4gg	.
.	.	16ddd'/Jk)	.	.
.	.	16r	.	.
*clefG2	*	*	*	*
4d/ 4f# 4b	.	2dd^\ 2ddd	2ryy	[
4d/ 4f# 4b	.	.	.	.
*clefF4	*	*	*	*
=25	=25	=25	=25	=25
4FFF#/ 4FF#	.	(8ccc#/L	4ff#\ 4aa#X	f
!	!	!LO:TX:b:i:t=riten.	!	!
.	.	16fff#'/Jk)	.	.
.	.	16r	.	.
4c#\ 4f# 4a#X	sf	[2ff#^\ [2fff#	2ryy	.
4FF#/	.	.	.	.
*	*	*v	*v	*
!!LO:LB:g=original	!	!	!
=26	=26	=26	=26
4GG/	p	12ff#\L] 12fff#]	.
!	!	!LO:TX:b:i:t=leggierissimo	!
.	.	12ee'\ 12eee	.
.	.	12dd'\J 12ddd	.
4E\ 4A 4c#	.	4b\ 4bb	.
4A\ 4c# 4e	.	4an^\ 4aan	.
=27	=27	=27	=27
4FF#/	.	12b'\L 12bb	.
.	.	12a'\ 12aa	.
.	.	12d'\J 12dd	.
4D\ 4A	.	4g\ 4gg	.
4BB^\ 4D#X 4A	.	[4f#^\ [4ff#	.
=28	=28	=28	=28
*	*	*^	*
*	*	*Xtuplet	*	*
4EE/ 4E	.	12f#\L] 12ff#]	4ryy	.
.	.	12ee\	.	.
.	.	12dd\J	.	.
4E\ 4G#X 4d	.	12b/L	4ryy	.
!	!	!	!	!LO:HP:a
.	.	12d#X/	.	<
.	.	12e/J	.	.
!	!	!	!	!LO:HP:a
4AA^\ 4E 4Gn	.	8.b/L	4c#\ 4e	[[
!	!	!	!	!LO:HP:a
.	.	16a/Jk	.	> ]]
*	*	*v	*v	*
=29	=29	=29	=29
4DD/ 4D	.	4d/	]
4F#\ 4A 4d	.	4r	.
!	!	!LO:TX:b:i:t=Fine.	!
4r	.	4r	.
=30||	=30||	=30||	=30||
*k[f#]	*	*k[f#]	*
!	!	!LO:TX:b:i:t=animato	!
4GGG/ 4GG	.	4b^^\ 4dd 4gg 4bb	fff
4D\ 4G 4B	.	8a\L 8aa	.
.	.	8g\J 8gg	.
4D\ 4A 4c	.	8e\L 8ee	.
.	.	8f#\J 8ff#	.
=31	=31	=31	=31
.	.	(<8qaa/	.
4GGG/ 4GG	.	8.gg\L)	.
.	.	16f#\Jk 16ff#	.
4D\ 4G 4B	.	4g\ 4gg	.
4D\ 4F# 4c	.	4a^^\ 4dd 4ff# 4aa	.
=32	=32	=32	=32
4GGG/ 4GG	.	4b^^\ 4dd 4gg 4bb	.
4D\ 4G 4B	.	8a\L 8aa	.
.	.	8g\J 8gg	.
4D\ 4A 4c	.	8e\L 8ee	.
.	.	8f#\J 8ff#	.
=33	=33	=33	=33
.	.	(<8qaa/	.
4GGG/ 4GG	.	8.gg\L)	.
.	.	16f#\Jk 16ff#	.
4D\ 4G 4B	.	4g\ 4gg	.
4D\ 4G 4B	.	4a\ 4aa	.
!!LO:LB:g=original	!	!	!
=34	=34	=34	=34
4BBB/ 4BB	.	8.b^^\L 8.dd#X 8.ff# 8.bb	.
.	.	16b\Jk 16bb	.
4A\ 4d#X 4f#	.	8cc#X\L 8ccc#X	.
.	.	8b\ 8bb	.
4A\ 4d# 4f#	.	8a#X\ 8aa#X	.
.	.	8an\J 8aan	.
=35	=35	=35	=35
8EE/L 8E	.	4a^^\ 4ee 4aa	.
8DD#X/ 8D#X	.	.	.
8EE/ 8E	.	8g\L 8gg	.
8FF#/ 8F#	.	8f#\J 8ff#	.
8GG/ 8G	.	4e/ 4ee	.
8GG#X/J 8G#X	.	.	.
=36	=36	=36	=36
4AAA/ 4AA	.	8.a^^\L 8.cc#X 8.ee 8.aa	.
.	.	16a\Jk 16cc# 16aa	.
4G\ 4A 4c#X	.	8b\L 8bb	.
.	.	8a\ 8aa	.
4G\ 4A 4c#	.	8g\ 8gg	.
.	.	8e\J 8ee	.
=37	=37	=37	=37
8DD/ 8D	.	8d\L 8dd	.
8D^^\ 8d	.	8d^^\J 8dd	.
8C#X^^\L 8c#X	.	8e^^\L 8ee	.
!	!	!LO:TX:b:i:t=pesante	!
8Cn^^\ 8cn	.	8f#^^\ 8ff#	.
8BB^^\ 8B	.	8g^^\ 8gg	.
8AA^^\J 8A	.	8a^^\J 8aa	.
!!LO:LB:g=original	!	!	!
=38	=38	=38	=38
4GGG/ 4GG	.	4b\ 4dd 4gg 4bb	fff
4D\ 4G 4B	.	8a\L 8aa	.
.	.	8g\ 8gg	.
4D\ 4A 4c	.	8e\ 8ee	.
.	.	8f#\J 8ff#	.
=39	=39	=39	=39
.	.	(<8qaa/	.
4GGG/ 4GG	.	8.gg\L)	.
.	.	16f#\Jk 16ff#	.
4D\ 4G 4B	.	4g\ 4gg	.
4D\ 4F# 4c	.	4a^^\ 4dd 4ff# 4aa	.
=40	=40	=40	=40
4GGG/ 4GG	.	4b^^\ 4dd 4gg 4bb	.
4D\ 4G 4B	.	8a\L 8aa	.
.	.	8g\ 8gg	.
4D\ 4A 4c	.	8e\ 8ee	.
.	.	8f#\J 8ff#	.
=41	=41	=41	=41
.	.	(<8qaa/	.
4GGG/ 4GG	.	8.gg\L)	.
.	.	16f#\Jk 16ff#	.
4D\ 4G 4B	.	4g\ 4gg	.
4GGG^^/ 4GG	.	4gg^^\ 4bb 4ddd 4ggg	sf
!!LO:LB:g=original	!	!	!
=42	=42	=42	=42
4CC#X/ 4C#X	.	8.e^^\L 8.g 8.b-X 8.ee	.
.	.	16e\Jk 16ee	.
2E\ 2G 2B-X	sf	8d#X\L 8dd#X	.
.	.	8e\ 8ee	.
.	.	8fn\ 8ffn	.
.	.	8f#X\J 8ff#X	.
=43	=43	=43	=43
4DD/ 4D	.	8.g^^\L 8.bn 8.ddn 8.gg	.
.	.	16f#\Jk 16ff#	.
2D\ 2G 2Bn	sf	8g\L 8gg	.
.	.	8a\ 8aa	.
.	.	8b\ 8bb	.
.	.	8cc\J 8ccc	.
=44	=44	=44	=44
4DD/ 4D	.	8.cc#X^^\L 8.ee 8.gg 8.ccc#X	<
.	.	16dd^^\Jk 16ddd	.
4A^<\ 4c 4f#	.	8ee-X^^\L 8eee-X	.
.	.	8een^^\ 8eeen	.
4DD/ 4D	.	8ffn^^\ 8fffn	.
.	.	8ff#X^^\J 8fff#X	[[
=45	=45	=45	=45
4GG/ 4G	.	4gg^^\ 4bb 4ddd 4ggg	sf
4GGG/ 4GG	sf	4r	.
4r	.	4r	.
!!LO:LB:g=original	!	!	!
=46||	=46||	=46||	=46||
4GGG/ 4GG	.	4b\ 4dd 4gg 4bb	.
4D\ 4G 4B	.	8a\L 8aa	.
.	.	8g\ 8gg	.
4D\ 4A 4c	.	8e\ 8ee	.
.	.	8f#\J 8ff#	.
=47	=47	=47	=47
.	.	(<8qaa/	.
4GGG/ 4GG	.	8.gg\L)	.
.	.	16f#\Jk 16ff#	.
4D\ 4G 4B	.	4g\ 4gg	.
4D\ 4A 4c	.	4a\ 4dd 4ff# 4aa	.
=48	=48	=48	=48
4GGG/ 4GG	.	4b\ 4dd 4gg 4bb	.
4D\ 4G 4B	.	8a\L 8aa	.
.	.	8g\ 8gg	.
4D\ 4A 4c	.	8e\ 8ee	.
.	.	8f#\J 8ff#	.
=49	=49	=49	=49
.	.	(<8qaa/	.
4GGG/ 4GG	.	8.gg\L)	.
.	.	16f#\Jk 16ff#	.
4D\ 4G 4B	.	4g\ 4gg	.
4D\ 4G 4B	.	4a\ 4aa	.
=50	=50	=50	=50
4BBB/ 4BB	.	8.b\L 8.dd#X 8.ff# 8.bb	.
.	.	16b\Jk 16bb	.
4A\ 4d#X 4f#	.	4cc\ 4ccc	.
4A\ 4d# 4f#	.	8b\L 8bb	.
.	.	8a\J 8aa	.
=51	=51	=51	=51
8EE/L 8E	.	4a\ 4ee 4aa	.
8DD#X/ 8D#X	.	.	.
8EE/ 8E	.	8g\L 8gg	.
8FF#/ 8F#	.	8f#\J 8ff#	.
8GG/ 8G	.	4e/ 4ee	.
8GG#X/J 8G#X	.	.	.
!!LO:LB:g=original	!	!	!
=52	=52	=52	=52
4AAA/ 4AA	.	8.a\L 8.cc#X 8.ee 8.aa	.
.	.	16a\Jk 16cc# 16aa	.
4Gn\ 4c#X 4e	.	8b\L 8bb	.
.	.	8a\ 8aa	.
4G\ 4c# 4e	.	8g\ 8gg	.
.	.	8e\J 8ee	.
=53	=53	=53	=53
8DD/ 8D	.	8d^^\L 8dd	.
8D^^\ 8d	.	8d^^\J 8dd	.
8C#X^^\L 8c#X	.	8e^^\L 8ee	.
8Cn^^\ 8cn	.	8f#^^\ 8ff#	.
8BB^^\ 8B	.	8g^^\ 8gg	.
8AA^^\J 8A	.	8a^^\J 8aa	.
=54	=54	=54	=54
8GGG/ 8GG	.	4b^^\ 4dd 4gg 4bb	.
8D'\	.	.	.
8G'\L	.	8a\L 8aa	.
8B'\J	.	8g\ 8gg	.
(8A\L 8c	.	8e\ 8ee	.
8D\J)	.	8f#\J 8ff#	.
=55	=55	=55	=55
.	.	(<8qaa/	.
8GGG/ 8GG	.	8.gg\L)	.
8D'\	.	.	.
.	.	16f#\Jk 16ff#	.
8G'\L	.	4g\ 4gg	.
8B'\J	.	.	.
(8F#\L 8c	.	4a^^\ 4dd 4ff# 4aa	.
8D\J)	.	.	.
=56	=56	=56	=56
8GGG/ 8GG	.	4b^^\ 4dd 4gg 4bb	.
8D'\	.	.	.
8G'\L	.	8a\L 8aa	.
8B'\J	.	8g\ 8gg	.
(8A\L 8c	.	8e\ 8ee	.
8D\J)	.	8f#\J 8ff#	.
!!LO:LB:g=original	!	!	!
=57	=57	=57	=57
.	.	(<8qaa/	.
8GGG/ 8GG	.	8.gg\L)	.
8D'\	.	.	.
.	.	16f#\Jk 16ff#	.
8G'\L	.	4g\ 4gg	.
8B'\J	.	.	.
4GGG/ 4GG	.	4gg\ 4bb 4ddd 4ggg	sf
=58	=58	=58	=58
8CC#X/ 8C#X	.	8.e\L 8.g 8.b-X 8.ee	sf
8E'\	.	.	.
.	.	16e\Jk 16ee	.
8G'\L	.	8d#X\L 8dd#X	.
8B-X'\J	.	8e\ 8ee	.
4c#X^\ 4e	.	8fn\ 8ffn	.
.	.	8f#X\J 8ff#X	.
=59	=59	=59	=59
8DD/ 8D	.	8.g\L 8.bn 8.ddn 8.gg	sf
8G'\	.	.	.
.	.	16f#\Jk 16ff#	.
8Bn'\L	.	8g\L 8gg	.
8d'\J	.	8a\ 8aa	.
4g^\	.	8b\ 8bb	.
.	.	8cc\J 8ccc	.
=60	=60	=60	=60
8.DD\L 8.D	.	8.cc#X\L 8.ff# 8.aa 8.ccc#X	fff
16D^^\Jk 16d	.	16dd^^\Jk 16ddd	.
!	!	!LO:TX:b:i:t=strepiloso	!
8C#X^^\L 8c#X	.	8ee-X^^\L 8eee-X	.
8Cn^^\ 8cn	.	8een^^\ 8eeen	.
8BB^^\ 8B	.	8ffn^^\ 8fffn	.
8AA^^\J 8A	.	8ff#X^^\J 8fff#X	.
=61	=61	=61	=61
4GG^^/ 4G	.	4gg^^\ 4bb 4ddd 4ggg	sf
4GGG/ 4GG	sf	4r	.
4r;	.	4r;	.
!!LO:LB:g=original	!	!	!
=62||	=62||	=62||	=62||
!	!	!LO:TX:a:B:t=Melancolico.	!
4EE/ 4E	.	8.b\L	p
.	.	(16b\Jk	.
4G\ 4c 4e	.	4.ee\)	.
4A\ 4c 4f#	.	.	.
.	.	8cc\	.
=63	=63	=63	=63
.	.	(16qqb/LL	.
.	.	16qqcc/JJ)	.
4EE/ 4E	.	8.b/L	.
.	.	16a/Jk	.
4B\ 4e	.	4g'/	.
4c\ 4e	.	4a'/	.
=64	=64	=64	=64
4EE/ 4E	.	8.b\L	.
.	.	(16b\Jk	.
4B\ 4e 4g	.	4.ee\)	.
4c\ 4e 4a	.	.	.
.	.	8cc\	.
=65	=65	=65	=65
.	.	(16qqb/LL	.
.	.	16qqcc/JJ)	.
4EE/ 4E	.	8.b/L	.
.	.	16a/Jk	.
4B\ 4e	.	4g'/	.
4c\ 4e	.	4a'/	.
=66	=66	=66	=66
4EE/ 4E	.	[4b\	.
4B\ 4e 4g	.	8b\L]	.
.	.	8gg\	.
4B\ 4e 4g	.	8ff#\	.
.	.	8ee\J	.
=67	=67	=67	=67
4FF#/ 4F#	.	[4dd\	.
4c\ 4d 4a	.	8dd\L]	.
.	.	8ee\	.
4c\ 4d 4a	.	8dd\	.
.	.	8cc\J	.
!!LO:LB:g=original	!	!	!
=68	=68	=68	=68
4GG/ 4G	.	(8b\L	.
.	.	16dd\Jk)	.
.	.	16r	.
4B\ 4d 4g	.	(8ee'\L	.
.	.	8ff#'\	.
4EE/ 4E	.	8gg'\	.
.	.	8aa'\J)	.
=69	=69	=69	=69
4BBB/ 4BB	.	2bb^\	.
*clefG2	*	*	*
(8B/L 8d#X	.	.	.
8f#/ 8a	.	.	.
8e/ 8g	.	4b\ 4bb	.
8B/J) 8f#	.	.	.
*clefF4	*	*	*
=70	=70	=70	=70
4EE/ 4E	.	8.b\L 8.bb	<
.	.	16b\Jk 16bb	.
4B\ 4e 4g	.	4.ee\ 4.eee	.
4c\ 4e 4a	.	.	.
.	.	8cc\ 8ccc	[
=71	=71	=71	=71
.	.	(16qqbb/LL	.
.	.	16qqccc/JJ)	.
4EE/ 4E	.	8.bb\L	.
.	.	16a\Jk 16aa	.
4B\ 4e	.	4g\ 4gg	.
4c\ 4e	.	4a\ 4aa	.
=72	=72	=72	=72
4EE/ 4E	.	8.b\L 8.bb	<
.	.	16b\Jk 16bb	.
4B\ 4e 4g	.	4.ee\ 4.eee	[
4c\ 4e 4a	.	.	.
.	.	8cc\ 8ccc	.
=73	=73	=73	=73
.	.	(16qqbb/LL	.
.	.	16qqccc/JJ)	.
4EE/ 4E	.	8.bb\L	.
.	.	16a\Jk 16aa	.
4B\ 4e	.	4g\ 4gg	.
4c\ 4e	.	4a\ 4aa	.
!!LO:LB:g=original	!	!	!
=74	=74	=74	=74
4EE/ 4E	.	[4b\ [4bb	.
4B\ 4e 4g	.	8b\L] 8bb]	.
.	.	8gg\ 8ggg	.
4B\ 4e 4g	.	8ff#\ 8fff#	.
.	.	8ee\J 8eee	.
=75	=75	=75	=75
4FF#/ 4F#	.	4.dd\ 4.ddd	.
4B\ 4d 4f#	.	.	.
.	.	8dd\L 8ddd	.
4B\ 4d 4f#	.	8cc#X\ 8ccc#X	.
.	.	8b\J 8bb	.
=76	=76	=76	=76
4FF#/ 4F#	.	[4b\ [4bb	.
4F#\ 4A#X 4e	.	8b\L] 8bb]	.
.	.	8a#X\ 8aa#X	.
4F#\ 4A# 4e	.	8g#X\ 8gg#X	.
.	.	8a#\J 8aa#	.
=77	=77	=77	=77
4BBB/ 4BB	.	2b\ 2bb	.
4r	.	.	.
4r	.	4r	.
=78||	=78||	=78||	=78||
!	!	!LO:TX:a:i:t=con energia	!
4DD/ 4D	.	8.a\L 8.cc 8.ff# 8.aa	ff
.	.	16b\Jk 16bb	.
4D\ 4F# 4A 4c	.	4a\ 4aa	.
4D\ 4F# 4A 4c	.	4d/ 4dd	.
=79	=79	=79	=79
4GGG/ 4GG	.	4g^^\ 4b 4dd 4gg	.
4D\ 4G 4B	.	4a^^\ 4aa	.
4D\ 4G 4B	.	4b^^\ 4bb	.
!!LO:LB:g=original	!	!	!
=80	=80	=80	=80
4BBB/ 4BB	.	8.f#\L 8.a 8.dd#X 8.ff#	.
.	.	16g\Jk 16gg	.
4D#X\ 4A	.	4f#\ 4ff#	.
4D#\ 4A	.	4B/ 4b	.
=81	=81	=81	=81
4EE/ 4E	.	4e^^\ 4g 4b 4ee	.
4E\ 4G 4B	.	4f#^^\ 4ff#	.
4E\ 4G 4B	.	4g^^\ 4gg	.
=82	=82	=82	=82
*tremolo	*	*tuplet	*
(32CC#X/LLL	sf	4e\ 4g 4b-X 4ee	<
32C#X/	.	.	.
32CC#/	.	.	.
32C#/	.	.	.
32CC#/	.	.	.
32C#/	.	.	.
32CC#/	.	.	.
32C#/	.	.	.
!	!	!LO:TX:t=P:problem=klamra łukowa	!
32CC#/	.	12e\L	.
32C#/	.	.	.
32CC#/	.	.	.
.	.	12ee\	.
32C#/	.	.	.
32CC#/	.	.	.
32C#/	.	.	.
.	.	(12ee\J	.
32CC#/	.	.	.
32C#/	.	.	.
32CC#/	.	4eee'\)	.
32C#/	.	.	.
32CC#/	.	.	.
32C#/	.	.	.
32CC#/	.	.	.
32C#/	.	.	.
32CC#/	.	.	.
32C#/JJJ)	.	.	.
=83	=83	=83	=83
(32BBB/LLL	sf	4e\ 4g 4bn 4ee	.
32BB/	.	.	.
32BBB/	.	.	.
32BB/	.	.	.
32BBB/	.	.	.
32BB/	.	.	.
32BBB/	.	.	.
32BB/	.	.	.
!	!	!LO:TX:t=P:problem=klamra łukowa	!
32BBB/	.	12e\L	.
32BB/	.	.	.
32BBB/	.	.	.
.	.	12ee\	.
32BB/	.	.	.
32BBB/	.	.	.
32BB/	.	.	.
.	.	(12ee\J	.
32BBB/	.	.	.
32BB/	.	.	.
32BBB/	.	4eee'\)	[[
32BB/	.	.	.
32BBB/	.	.	.
32BB/	.	.	.
32BBB/	.	.	.
32BB/	.	.	.
32BBB/	.	.	.
32BB/JJJ)	.	.	.
=84	=84	=84	=84
(<32AAA#X\LLL	.	8e/ 8g 8cc#X 8ee	.
32AA#X\	.	.	.
32AAA#\	.	.	.
32AA#\	.	.	.
32AAA#\	.	8E<^^/ 8e	.
32AA#\	.	.	.
32AAA#\	.	.	.
32AA#\	.	.	.
32AAA#\	.	8G<^^/L 8g	.
32AA#\	.	.	.
32AAA#\	.	.	.
32AA#\	.	.	.
32AAA#\	.	8A#X<^^/J 8a#X	.
32AA#\	.	.	.
32AAA#\	.	.	.
32AA#\	.	.	.
32AAA#\	.	8c#X<^^/L 8cc#	.
32AA#\	.	.	.
32AAA#\	.	.	.
32AA#\	.	.	.
32AAA#\	.	8e^^/J 8ee	.
32AA#\	.	.	.
32AAA#\	.	.	.
32AA#\JJJ)	.	.	.
=85	=85	=85	=85
8AAA#X/ 8AA#X	.	8g^^\L 8gg	fff
8G^^\ 8A 8c#X 8e	.	8a#X^^\ 8aa#X	.
*Xtremolo	*	*	*
8G^^\L 8A 8c# 8e	.	8cc#X^^\ 8ccc#X	.
8G^^\ 8A 8c# 8e	.	8ee^^\J 8eee	.
8G^^\ 8A 8c# 8e	.	8.gg^^\L 8.ggg	.
8G^^\J 8A 8c# 8e	.	.	.
.	.	16cc#^^\Jk 16ccc#	.
!!LO:LB:g=original	!	!	!
=86	=86	=86	=86
*^	*	*^	*
4BBB/ 4BB	4ryy	sf	4b\ 4bb	4ryy	sf
4r	4ryy	.	[>2b^/ [2bb	4ryy	p
4E#X/	4BB\	<	.	4B\ 4d 4g#X	.
=87	=87	=87	=87	=87	=87
2F#/	2BB\	.	4b'/] 4bb]	2B\ 2d#X 2a	.
.	.	.	[2b^/ [2bb	.	.
4G#X/	4BB\	.	.	4B\ 4dn 4e#X	.
=88	=88	=88	=88	=88	=88
2A/	2BB\	[	4b/] 4bb]	2B\ 2d#X 2f#	.
.	.	.	[2b^/ [2bb	.	.
(8E^/L	4BB\	<	.	4B\ 4dn 4g#X	.
8E#X/J	.	.	.	.	.
=89	=89	=89	=89	=89	=89
2F#/)	2BB\	.	4b/] 4bb]	2B\ 2d#X 2a	.
.	.	.	[2b^/ [2bb	.	.
(8G^/L	4BB\	.	.	4B\ 4dn 4e#X	.
8G#X/J	.	.	.	.	.
=90	=90	=90	=90	=90	=90
2A/)	2BB\	[[	4b/] 4bb]	2B\ 2d#X 2f#	.
.	.	.	[2b^/ [2bb	.	.
4G#X/	4BB\	>	.	4B\ 4dn 4e#X 4b	.
=91	=91	=91	=91	=91	=91
2A/	2BB\	]]	4b/] 4bb]	2B:\ 2d#X: 2f#: 2a:	.
.	.	.	2b^/ 2bb	.	.
4G#X/	4BB\	>	.	4B:\ 4dn: 4e#X: 4b:	.
=92	=92	=92	=92	=92	=92
4A/	4BB\	.	4b/ 4bb	2B:\ 2d#X: 2f#: 2b:	.
!	!	!	!LO:TX:b:i:t=rallentando	!	!
4r	4ryy	]	4b/ 4bb	.	>
4r	4ryy	.	4b/ 4bb	4ryy	.
*v	*v	*	*	*	*
*	*	*v	*v	*
=93	=93	=93	=93
2.r	.	4b/ 4bb	.
.	.	4b/	.
.	.	4b/	]]
!!LO:LB:g=original	!	!	!
=94	=94	=94	=94
4EE/ 4E	.	8.b\L	pp
.	.	(16b\Jk	.
4B\ 4e 4g	.	4.ee\)	.
4c\ 4e 4a	.	.	.
.	.	8cc\	.
=95	=95	=95	=95
.	.	(16qqb/LL	.
.	.	16qqcc/JJ)	.
4EE/ 4E	.	8.b/L	.
.	.	16a/Jk	.
4B\ 4e	.	4g'/	.
4c\ 4e	.	4a'/	.
=96	=96	=96	=96
4EE/ 4E	.	8.b\L	.
.	.	(16b\Jk	.
4B\ 4e 4g	.	4.ee\)	.
4c\ 4e 4a	.	.	.
.	.	8cc\	.
=97	=97	=97	=97
.	.	(16qqb/LL	.
.	.	16qqcc/JJ)	.
4EE/ 4E	.	8.b/L	.
.	.	16a/Jk	.
4B\ 4e	.	4g'/	.
4c\ 4e	.	4a'/	.
=98	=98	=98	=98
4EE/ 4E	.	[4b\	.
4B\ 4e 4g	.	8b\L]	.
.	.	8gg\	.
4B\ 4e 4g	.	8ff#\	.
.	.	8ee\J	.
=99	=99	=99	=99
4FF#/ 4F#	.	[4dd\	.
4c\ 4d 4a	.	8dd\L]	.
.	.	8ee\	.
4c\ 4d 4a	.	8dd\	.
.	.	8cc\J	.
!!LO:LB:g=original	!	!	!
=100	=100	=100	=100
4GG/ 4G	.	(8b\L	.
.	.	16dd\Jk)	.
.	.	16r	.
4B\ 4d 4g	.	(8ee'\L	.
.	.	8ff#'\	.
4EE/ 4E	.	8gg'\	.
.	.	8aa'\J)	.
=101	=101	=101	=101
4BBB/ 4BB	.	2bb\	.
*clefG2	*	*	*
!	!LO:HP:a	!	!
(8B/L 8d#X	<	.	.
8f#/ 8a	[	.	.
8e/ 8g	.	4b\ 4bb	.
8B/J) 8f#	.	.	.
*clefF4	*	*	*
=102	=102	=102	=102
!	!	!LO:TX:b:t=2	!
4EE/ 4E	.	8.b\L 8.bb	.
*	*	*ped	*
.	.	16b\Jk 16bb	.
4B\ 4e 4g	.	4.ee\ 4.eee	.
4c\ 4e 4a	.	.	.
.	.	8cc\ 8ccc	.
=103	=103	=103	=103
.	.	(16qqbb/LL	.
.	.	16qqccc/JJ)	.
4EE/ 4E	.	8.bb\L	.
.	.	16a\Jk 16aa	.
4B\ 4e	.	4g\ 4gg	.
4c\ 4e	.	4a\ 4aa	.
=104	=104	=104	=104
4EE/ 4E	.	8.b\L 8.bb	.
.	.	16b\Jk 16bb	.
4B\ 4e 4g	.	4.ee\ 4.eee	.
4c\ 4e 4a	.	.	.
.	.	8cc\ 8ccc	.
!!LO:LB:g=original	!	!	!
=105	=105	=105	=105
.	.	(16qqbb/LL	.
.	.	16qqccc/JJ)	.
4EE/ 4E	.	8.bb\L	.
.	.	16a\Jk 16aa	.
4B\ 4e	.	4g\ 4gg	.
4c\ 4e	.	4a\ 4aa	.
=106	=106	=106	=106
*ped	*	*	*
4EE/ 4E	.	[4b\ [4bb	.
4B\ 4e 4g	.	8b\L] 8bb]	.
.	.	8cc#X\ 8ccc#X	.
4B\ 4e 4g	.	8dd#X\ 8ddd#X	.
.	.	8ee\J 8eee	.
*Xped	*	*	*
=107	=107	=107	=107
*ped	*	*	*
4CC/ 4C	.	[4ee\ [4eee	.
4B-X\ 4e 4g	.	8ee\L] 8eee]	.
.	.	8ffn\ 8fffn	.
4B-\ 4e 4g	.	8ff#X\ 8fff#X	.
.	.	8gg\J 8ggg	.
*Xped	*	*	*
=108	=108	=108	=108
*ped	*	*8va	*
4BBBn/ 4BBn	.	[4gg\ [4ggg	.
4B\ 4e 4g	.	8gg\L] 8ggg]	.
.	.	8aa\ 8aaa	.
4B\ 4e 4g	.	8bb-X\ 8bbb-X	.
.	.	8bbn\J 8bbbn	.
*Xped	*	*	*
=109	=109	=109	=109
*ped	*	*	*
4BBB/ 4BB	.	8bb\L 8bbb	.
.	.	8aa\ 8aaa	.
4A\ 4d#X 4f#	.	8ff#\ 8fff#	.
.	.	8b\J 8bb	.
4A\ 4d# 4f#	.	8.gg;\L 8.ggg	.
.	.	16ff#\Jk 16fff#	.
*Xped	*	*X8va	*
!!LO:LB:g=original	!	!	!
=110	=110	=110	=110
!	!	!LO:TX:t=P:problem= klamra łukowa	!
4EE/ 4E	.	24ee\LL	.
.	.	24eee\	.
.	.	24ee\	.
.	.	24eee\	.
.	.	24ee\	.
.	.	24eee\JJ	.
*clefG2	*	*	*
!	!	!LO:TX:t=P:problem= klamra łukowa	!
4e^/	.	24ee\LL	.
.	.	24eee\	.
.	.	24ee\	.
.	.	24eee\	.
.	.	24ee\	.
.	.	24eee\JJ	.
!	!	!LO:TX:t=P:problem= klamra łukowa	!
4e^/	.	24ee\LL	.
.	.	24eee\	.
.	.	24ee\	.
.	.	24eee\	.
.	.	24ee\	.
.	.	24eee\JJ	.
=111	=111	=111	=111
*	*	*tremolo	*
!	!	!LO:TX:t=P:problem= klamra łukowa	!
8.e/L 8.a 8.cc	.	24ee\LL	.
.	.	24eee\	.
.	.	24ee\	.
.	.	24eee\	.
.	.	24ee\	.
(16cc/Jk	.	.	.
.	.	24eee\	.
4ff#^\)	.	24ee\	.
.	.	24eee\	.
.	.	24ee\	.
.	.	24eee\	.
.	.	24ee\	.
.	.	24eee\	.
4e/ 4a 4cc	.	24ee\	.
.	.	24eee\	.
.	.	24ee\	.
.	.	24eee\	.
.	.	24ee\	.
.	.	24eee\JJ	.
=112	=112	=112	=112
!	!	!LO:TX:t=P:problem= klamra łukowa	!
8.e/L 8.g 8.b	.	24ee\LL	.
.	.	24eee\	.
.	.	24ee\	.
.	.	24eee\	.
.	.	24ee\	.
(16b/Jk	.	.	.
.	.	24eee\	.
4ee^\)	.	24ee\	.
.	.	24eee\	.
.	.	24ee\	.
.	.	24eee\	.
.	.	24ee\	.
.	.	24eee\	.
4e/ 4g 4b	.	24ee\	.
.	.	24eee\	.
.	.	24ee\	.
.	.	24eee\	.
.	.	24ee\	.
.	.	24eee\JJ	.
!!LO:LB:g=original	!	!	!
=113	=113	=113	=113
!	!	!LO:TX:t=P:problem= klamra łukowa	!
8.e/L 8.a 8.cc	.	24ee\LL	.
.	.	24eee\	.
.	.	24ee\	.
.	.	24eee\	.
.	.	24ee\	.
(16cc/Jk	.	.	.
.	.	24eee\	.
4ff#^\)	.	24ee\	.
.	.	24eee\	.
.	.	24ee\	.
.	.	24eee\	.
.	.	24ee\	.
.	.	24eee\	.
4e/ 4a 4cc	.	24ee\	.
.	.	24eee\	.
.	.	24ee\	.
.	.	24eee\	.
.	.	24ee\	.
.	.	24eee\JJ	.
=114	=114	=114	=114
!	!	!LO:TX:t=P:problem= klamra łukowa	!
8.e/L 8.g 8.b	.	24ee\LL	.
.	.	24eee\	.
.	.	24ee\	.
.	.	24eee\	.
.	.	24ee\	.
(16b/Jk	.	.	.
.	.	24eee\	.
4ee^\)	.	24ee\	.
.	.	24eee\	.
.	.	24ee\	.
.	.	24eee\	.
.	.	24ee\	.
.	.	24eee\	.
4e/ 4g 4b	.	24ee\	.
.	.	24eee\	.
.	.	24ee\	.
.	.	24eee\	.
.	.	24ee\	.
.	.	24eee\JJ	.
*clefF4	*	*	*
=115	=115	=115	=115
!	!	!LO:TX:t=P:problem= klamra łukowa	!
8.E\L 8.A 8.c	.	24e/LL	pp
.	.	24ee/	.
.	.	24e/	.
.	.	24ee/	.
.	.	24e/	.
(16c\Jk	.	.	.
.	.	24ee/	.
4f#^\)	.	24e/	.
.	.	24ee/	.
.	.	24e/	.
.	.	24ee/	.
.	.	24e/	.
.	.	24ee/	.
4E\ 4A 4c	.	24e/	.
.	.	24ee/	.
.	.	24e/	.
.	.	24ee/	.
.	.	24e/	.
.	.	24ee/JJ	.
=116	=116	=116	=116
!	!	!LO:TX:t=P:problem= klamra łukowa	!
8.E\L 8.G 8.B	.	24e/LL	.
.	.	24ee/	.
.	.	24e/	.
.	.	24ee/	.
.	.	24e/	.
(16B\Jk	.	.	.
.	.	24ee/	.
4e^\)	.	24e/	.
.	.	24ee/	.
.	.	24e/	.
.	.	24ee/	.
.	.	24e/	.
.	.	24ee/	.
4E\ 4G 4B	.	24e/	.
.	.	24ee/	.
.	.	24e/	.
.	.	24ee/	.
.	.	24e/	.
.	.	24ee/JJ	.
=117	=117	=117	=117
!	!	!LO:TX:t=P:problem= klamra łukowa	!
8.E\L 8.A 8.c	.	24e/LL	.
.	.	24ee/	.
.	.	24e/	.
.	.	24ee/	.
.	.	24e/	.
(16c\Jk	.	.	.
.	.	24ee/	.
4f#^\)	.	24e/	.
.	.	24ee/	.
.	.	24e/	.
.	.	24ee/	.
.	.	24e/	.
.	.	24ee/	.
4E\ 4A 4c	.	24e/	.
.	.	24ee/	.
.	.	24e/	.
.	.	24ee/	.
.	.	24e/	.
.	.	24ee/JJ	.
!!LO:LB:g=original	!	!	!
=118	=118	=118	=118
!	!	!LO:TX:t=P:problem= klamra łukowa	!
8.E\L 8.G 8.B	.	24e/LL	.
.	.	24ee/	.
.	.	24e/	.
.	.	24ee/	.
.	.	24e/	.
(16B\Jk	.	.	.
.	.	24ee/	.
4e^\)	.	24e/	.
.	.	24ee/	.
.	.	24e/	.
.	.	24ee/	.
.	.	24e/	.
.	.	24ee/	.
4E\ 4A 4c	.	24e/	.
.	.	24ee/	.
.	.	24e/	.
.	.	24ee/	.
.	.	24e/	.
.	.	24ee/JJ	.
=119	=119	=119	=119
!	!	!LO:TX:t=P:problem= klamra łukowa	!
8.E\L 8.G 8.B	.	24e/LL	.
.	.	24ee/	.
.	.	24e/	.
.	.	24ee/	.
.	.	24e/	.
(16B\Jk	.	.	.
.	.	24ee/	.
4e^\)	.	24e/	.
.	.	24ee/	.
.	.	24e/	.
.	.	24ee/	.
.	.	24e/	.
.	.	24ee/	.
4E\ 4F# 4A	.	24e/	.
.	.	24ee/	.
.	.	24e/	.
.	.	24ee/	.
.	.	24e/	.
.	.	24ee/JJ	.
=120	=120	=120	=120
!	!	!LO:TX:t=P:problem= klamra łukowa	!
4E\ 4G	.	24e/LL	.
.	.	24ee/	.
.	.	24e/	.
.	.	24ee/	.
.	.	24e/	.
.	.	24ee/	.
4EE/ 4E	.	24e/	.
.	.	24ee/	.
.	.	24e/	.
.	.	24ee/	.
.	.	24e/	.
.	.	24ee/	.
4EE/ 4E	.	24e/	.
.	.	24ee/	.
.	.	24e/	.
.	.	24ee/	.
.	.	24e/	.
.	.	24ee/JJ	.
=121	=121	=121	=121
!	!	!LO:TX:t=P:problem= klamra łukowa	!
4EE/ 4E	.	24e/LL	.
.	.	24ee/	.
.	.	24e/	.
.	.	24ee/	.
.	.	24e/	.
.	.	24ee/	.
4EE/ 4E	.	24e/	.
.	.	24ee/	.
.	.	24e/	.
.	.	24ee/	.
.	.	24e/	.
.	.	24ee/	.
4EE/ 4E	.	24e/	.
.	.	24ee/	.
.	.	24e/	.
.	.	24ee/	.
.	.	24e/	.
.	.	24ee/JJ	.
=122	=122	=122	=122
*tremolo	*	*	*
(32EE/LLL	.	(8e/L	ppp
32E/	.	.	.
32EE/	.	.	.
32E/	.	.	.
32EE/	.	8g/J	.
32E/	.	.	.
32EE/	.	.	.
32E/	.	.	.
32EE/	.	8b\L	.
32E/	.	.	.
32EE/	.	.	.
32E/	.	.	.
!	!	!LO:TX:b:i:t=rallentando	!
32EE/	.	8ee\	.
32E/	.	.	.
32EE/	.	.	.
32E/	.	.	.
32EE/	.	8gg\	.
32E/	.	.	.
32EE/	.	.	.
32E/	.	.	.
32EE/	.	8bb\J	.
32E/	.	.	.
32EE/	.	.	.
32E/JJJ)	.	.	.
!!LO:LB:g=original	!	!	!
=123	=123	=123	=123
(32EE/LLL	.	8eee\L)	.
32E/	.	.	.
32EE/	.	.	.
32E/	.	.	.
!	!	!LO:TX:b:i:t=morendo	!
32EE/	.	(8gg\	.
32E/	.	.	.
32EE/	.	.	.
32E/	.	.	.
32EE/	.	8bb\	.
32E/	.	.	.
32EE/	.	.	.
32E/	.	.	.
32EE/	.	8eee\	.
32E/	.	.	.
32EE/	.	.	.
32E/	.	.	.
32EE/	.	8ggg\	.
32E/	.	.	.
32EE/	.	.	.
32E/	.	.	.
32EE/	.	8bbb\J)	.
32E/	.	.	.
32EE/	.	.	.
32E/JJJ)	.	.	.
=124	=124	=124	=124
*	*	*8va	*
(32EE/LLL	.	[2.eee\ [2.eeee	.
32E/	.	.	.
32EE/	.	.	.
32E/	.	.	.
32EE/	.	.	.
32E/	.	.	.
32EE/	.	.	.
32E/	.	.	.
32EE/	.	.	.
32E/	.	.	.
32EE/	.	.	.
32E/	.	.	.
32EE/	.	.	.
32E/	.	.	.
32EE/	.	.	.
32E/	.	.	.
32EE/	.	.	.
32E/	.	.	.
32EE/	.	.	.
32E/	.	.	.
32EE/	.	.	.
32E/	.	.	.
32EE/	.	.	.
32E/JJJ)	.	.	.
=125	=125	=125	=125
2.EE/ 2.E	.	2.eee\] 2.eeee]	.
*	*	*X8va	*
=126||	=126||	=126||	=126||
!	!	!LO:TX:a:B:t=Animato.	!
4GGG/ 4GG	.	4b^^\ 4dd 4gg 4bb	fff
4D\ 4G 4B	.	8a\L 8aa	.
.	.	8g\ 8gg	.
4D\ 4A 4c	.	8e\ 8ee	.
.	.	8f#\J 8ff#	.
=127	=127	=127	=127
.	.	(<8qaa/	.
4GGG/ 4GG	.	8.gg\L)	.
.	.	16f#\Jk 16ff#	.
4D\ 4G 4B	.	4g\ 4gg	.
4D\ 4F# 4c	.	4a^^\ 4dd 4ff# 4aa	.
!!LO:LB:g=original	!	!	!
=128	=128	=128	=128
4GGG/ 4GG	.	4b^^\ 4dd 4gg 4bb	.
4D\ 4G 4B	.	8a\L 8aa	.
.	.	8g\ 8gg	.
4D\ 4A 4c	.	8e\ 8ee	.
.	.	8f#\J 8ff#	.
=129	=129	=129	=129
.	.	(<8qaa/	.
4GGG/ 4GG	.	8.gg\L)	.
.	.	16f#\Jk 16ff#	.
4D\ 4G 4B	.	4g\ 4gg	.
4D\ 4G 4B	.	4a\ 4aa	.
=130	=130	=130	=130
4BBB/ 4BB	.	8.b^^\L 8.dd#X 8.ff# 8.bb	.
.	.	16b\Jk 16bb	.
4A\ 4d#X 4f#	.	8cc#X\L 8ccc#X	.
.	.	8b\ 8bb	.
4A\ 4d# 4f#	.	8a#X\ 8aa#X	.
.	.	8an\J 8aan	.
=131	=131	=131	=131
8EE^^/L 8E	.	4a\ 4ee 4aa	.
8DD#X^^/ 8D#X	.	.	.
8EE^^/ 8E	.	8g\L 8gg	.
8FF#^^/ 8F#	.	8f#\J 8ff#	.
8GG^^/ 8G	.	4e/ 4ee	.
8GG#X^^/J 8G#X	.	.	.
=132	=132	=132	=132
4AAA/ 4AA	.	8.a^^\L 8.cc#X 8.ee 8.aa	.
.	.	16a\Jk 16cc# 16aa	.
4G\ 4A 4c#X	.	8b\L 8bb	.
.	.	8a\ 8aa	.
4G\ 4A 4c#	.	8g\ 8gg	.
.	.	8e\J 8ee	.
!!LO:LB:g=original	!	!	!
=133	=133	=133	=133
8DD\L 8D	.	8d/L 8f# 8a 8dd	.
8D^^\J 8d	.	8d^^/J 8dd	.
8C#X^^\L 8c#X	.	8e^^\L 8ee	.
8Cn^^\ 8cn	.	8f#^^\ 8ff#	.
8BB^^\ 8B	.	8g^^\ 8gg	.
8AA^^\J 8A	.	8a^^\J 8aa	.
=134	=134	=134	=134
4GGG/ 4GG	.	4b\ 4dd 4gg 4bb	sf
4D\ 4G 4B	.	8a\L 8aa	.
.	.	8g\ 8gg	.
4D\ 4A 4c	.	8e\ 8ee	.
.	.	8f#\J 8ff#	.
=135	=135	=135	=135
.	.	(<8qaa/	.
4GGG/ 4GG	.	8.gg\L)	.
.	.	16f#\Jk 16ff#	.
4D\ 4G 4B	.	4g\ 4gg	.
4D\ 4F# 4c	.	4a^^\ 4dd 4ff# 4aa	.
=136	=136	=136	=136
4GGG/ 4GG	.	4b^^\ 4dd 4gg 4bb	.
4D\ 4G 4B	.	8a\L 8aa	.
.	.	8g\J 8gg	.
4D\ 4A 4c	.	8e\L	.
.	.	8f#\J 8ff#	.
=137	=137	=137	=137
.	.	(<8qaa/	.
4GGG/ 4GG	.	8.gg\L)	.
.	.	16f#\Jk 16ff#	.
4D\ 4G 4B	.	4g\ 4gg	.
4GGG/ 4GG	.	4gg\ 4bb 4ddd 4ggg	sf
!!LO:LB:g=original	!	!	!
=138	=138	=138	=138
4CC#X/ 4C#X	.	8.e^^\L 8.g 8.b-X 8.ee	.
.	.	16e\Jk 16ee	.
2E\ 2G 2B-X	sf	8d#X\L 8dd#X	.
.	.	8e\ 8ee	.
.	.	8fn\ 8ffn	.
.	.	8f#X\J 8ff#X	.
=139	=139	=139	=139
4DD/ 4D	.	8.g^^\L 8.bn 8.ddn 8.gg	.
.	.	16f#\Jk 16ff#	.
2D\ 2G 2Bn	sf	8g\L 8gg	.
.	.	8a\ 8aa	.
.	.	8b\ 8bb	.
.	.	8cc\J 8ccc	.
=140	=140	=140	=140
4DD/ 4D	.	8.cc#X\L 8.ee 8.gg 8.ccc#X	.
.	.	16dd^^\Jk 16ddd	.
4A\ 4c 4f#	.	8ee-X^^\L 8eee-X	.
!	!	!LO:TX:b:i:t=strepiloso	!
.	.	8een^^\ 8eeen	.
4DD/ 4D	.	8ffn^^\ 8fffn	.
.	.	8ff#X^^\J 8fff#X	.
=141	=141	=141	=141
4GG/ 4G	.	4gg^^\ 4bb 4ddd 4ggg	sf
!	!LO:DY:a	!	!
4GGG/ 4GG	sf	4r	.
!	!	!LO:TX:b:i:t=dal Segno\nal Fine.	!
4r	.	4r	.
!LO:TX:b:t=[segno]	!	!LO:TX:a:t=[segno]	!
==	==	==	==
*-	*-	*-	*-
!!!system-decoration: {(s1,s2)}
!!!RDF**kern: > = above
!!!RDF**kern: < = below
!!!ENC: Berenika Jozajtis
!!!END: 2022-03-05
!!!ENC: Jan Barakat
!!!END: 2022-03-17
